vendor/shopware/storefront/Resources/app/storefront/dist/assets/icon/solid/star.svg

<svg xmlns="http://www.w3.org/2000/svg" xmlns:xlink="http://www.w3.org/1999/xlink" width="24" height="24" viewBox="0 0 24 24">
<defs>
    <path id="icons-default-basic-shape-star-full-a" d="M6.79981683,23.3169002 C5.78903608,23.7623169 4.60855479,23.3039988 4.16313807,22.2932181 C4.02365389,21.9766877 3.96864772,21.6293924 4.00349179,21.2852512 L4.57593077,15.6314953 L0.789623603,11.3939819 C0.0536586991,10.5703137 0.124756335,9.30598115 0.948424617,8.57001625 C1.20635992,8.33954564 1.51965952,8.17991152 1.85772473,8.1067047 L7.41165943,6.90401989 L10.2717409,1.99356414 C10.8276703,1.03909242 12.0520923,0.716010061 13.0065641,1.27193949 C13.305461,1.4460312 13.554097,1.69466717 13.7281887,1.99356414 L16.5882702,6.90401989 L22.1422049,8.1067047 C23.2217531,8.34047702 23.9073899,9.40513365 23.6736175,10.4846818 C23.6004107,10.822747 23.4407766,11.1360466 23.210306,11.3939819 L19.4239988,15.6314953 L19.9964378,21.2852512 C20.1077058,22.3842021 19.3070306,23.3652785 18.2080797,23.4765465 C17.8639384,23.5113906 17.5166431,23.4563844 17.2001128,23.3169002 L11.9999648,21.0253718 L6.79981683,23.3169002 Z"/>
</defs>
<use fill="#758CA3" fill-rule="evenodd" xlink:href="#icons-default-basic-shape-star-full-a"/>
</svg>

<svg xmlns="http://www.w3.org/2000/svg" xmlns:xlink="http://www.w3.org/1999/xlink" width="24" height="24" viewBox="0 0 24 24"><defs><path id="icons-default-basic-shape-star-full-a" d="M6.7998 23.3169c-1.0108.4454-2.1912-.0129-2.6367-1.0237a2 2 0 0 1-.1596-1.008l.5724-5.6537L.7896 11.394c-.736-.8237-.6648-2.088.1588-2.824a2 2 0 0 1 .9093-.4633l5.554-1.2027 2.86-4.9104c.556-.9545 1.7804-1.2776 2.7349-.7217a2 2 0 0 1 .7216.7217l2.86 4.9104 5.554 1.2027c1.0796.2338 1.7652 1.2984 1.5314 2.378a2 2 0 0 1-.4633.9093l-3.7863 4.2375.5724 5.6538c.1113 1.0989-.6894 2.08-1.7883 2.1912a2 2 0 0 1-1.008-.1596L12 21.0254l-5.2002 2.2915z"/></defs><use fill="#758CA3" fill-rule="evenodd" xlink:href="#icons-default-basic-shape-star-full-a"/></svg>
